resources/icons/16px/layout-right-column-three-tiles.svg

<svg width="16" height="16" viewBox="0 0 16 16" fill="none" xmlns="http://www.w3.org/2000/svg">
<path d="M9 7C9 6.44772 9.44772 6 10 6H15C15.5523 6 16 6.44772 16 7V9C16 9.55228 15.5523 10 15 10H10C9.44772 10 9 9.55228 9 9V7Z" fill="black"/>
<path d="M9 1C9 0.447715 9.44772 0 10 0H15C15.5523 0 16 0.447715 16 1V3C16 3.55228 15.5523 4 15 4H10C9.44772 4 9 3.55228 9 3V1Z" fill="black"/>
<path d="M9 13C9 12.4477 9.44772 12 10 12H15C15.5523 12 16 12.4477 16 13V15C16 15.5523 15.5523 16 15 16H10C9.44772 16 9 15.5523 9 15V13Z" fill="black"/>
<path d="M0 1C0 0.447715 0.447715 0 1 0H6C6.55228 0 7 0.447715 7 1V15C7 15.5523 6.55228 16 6 16H1C0.447715 16 0 15.5523 0 15V1Z" fill="black"/>
</svg>

<svg xmlns="http://www.w3.org/2000/svg" viewBox="0 0 16 16">
  <path d="M9 7a1 1 0 0 1 1-1h5a1 1 0 0 1 1 1v2a1 1 0 0 1-1 1h-5a1 1 0 0 1-1-1zM9 1a1 1 0 0 1 1-1h5a1 1 0 0 1 1 1v2a1 1 0 0 1-1 1h-5a1 1 0 0 1-1-1zM9 13a1 1 0 0 1 1-1h5a1 1 0 0 1 1 1v2a1 1 0 0 1-1 1h-5a1 1 0 0 1-1-1zM0 1a1 1 0 0 1 1-1h5a1 1 0 0 1 1 1v14a1 1 0 0 1-1 1H1a1 1 0 0 1-1-1z"/>
</svg>
